X:1
T:Chi puo contar
T:Chi puo contar
T:Giovanni Brachrogge
T:Source : Madrigaletti a 3 voci---Libro I---Copenhagen---H.Waldkirch---1619. Editor : André Vierendeels (26/03/14).
T:Notes : Original clefs : C1, C1, C4 Editorial accidentals above the staff
C:Giovanni Brachrogge
%%score [ 1 2 3 ]
L:1/8
Q:1/4=80
M:4/4
K:C
V:1 treble nm="Soprano 1" snm="S 1"
V:2 treble nm="Soprano 2" snm="S 2"
V:3 treble-8 nm="Tenor" snm="T"
V:1
 z8 | d4 d2 c2 | B2 A2 G2 A/B/A/B/ | c2 d2 eedc | B2 d2 d2 ^FG | A2 A2 ddcc | B4 A4 | z2 A2 dddB | %8
w: |Chi puo con-|tar le stel- * * * *|* * le, e le mi-|nu- te'a- re- * *|ne, chi puo con- tar le|stel- le,|e le mi- nu- te'a-|
w: ||||||||
 ^c2 d4 c2 | d4 z2 dc | B2 G2 z2 BA | ^GGed ^c4 | d4 z2 A2 | d3 c BAGE | ^F2 G2 A4 |1[M:2/4] G4 ::2 %16
w: re- * *|ne, le bel-|lez- ze, le bel-|lez- ze del mio be-|ne: rac-|con- ti le bel- lez ze|del mio be-|ne,|
w: ||||||||
[M:4/4] G8 || z2 G2 BcdB | A4 A4 | z2 A2 cdec | B2 E2 E4 | z2 B2 c2 BA | G4 z2 B2 | d2 cB A4 | %24
w: ne,|che sua bel- ta su-|pre- ma,|che sua bel- ta su-|pre- * ma,|e, u- na bel-|ta, e,-|u- na bel- ta,|
w: 2.ma,||||||||
 z4 A2 d2- | d2 B2 B2 G2 | A2 A2 z2 B2 | d2 G2 A4 :| G8 |] %29
w: ch'è nel|* suo mez- zo'es-|tre- ma, suo|mez- zo'es- tre-|ma.|
w: |||||
V:2
 d4 d2 c2 | B2 G2 G^F E/F/E/F/ | G2 A2 B2 z2 | z2 ^F2 GcBA | G2 B2 B2 AG | ^F2 A2 G2 F2 | %6
w: Chi puo con-|tar le stel- * * * * *|* * le,|e le, e le mi-|nu- te'a- re- * *|ne, chi puo con-|
w: ||||||
 G2 G2 ^F/E/D/E/ F/G/A | A4 z2 G2 | GGFF E4 | ^F2 A2 A2 F2 | z2 BA ^GEec | B4 A4 | z2 A2 d3 c | %13
w: tar ste stel- * * * * * *|le, e|le mi- nu- te'a- re-|ne, rac- con- ti|le bel- lez- ze del mio|be- ne:|rac- con- ti|
w: |||||||
 B2 A2 G2 B2 | d2 G2 G2 ^F2 |1[M:2/4] G4 ::2[M:4/4] G2 E4 D2 || E4 D4 | z2 F4 E2 | F4 E2 E2 | %20
w: le bel- lez- ze|del mio be- *|ne,|ne, jo di-|ro sol,|jo di-|ro sol, che|
w: |||2.ma, * *||||
 E^F^GA B4 | E4 z2 E2 | E2 DC D2 G2 | B2 AG ^F2 A2 |"^#" A2 EE F4 | D2 G4 E2 | D6 E2 | ^FD G4 F2 :| %28
w: sua bel- ta su- pre-|ma, e,|u- na bel- ta, e,|u- na bel- ta, e|u- na bel- ta,|ch'è nel suo|mez- zo'es-|tre- * * *|
w: ||||||||
 G8 |] %29
w: ma.|
w: |
V:3
 z8 | z8 | G4 G2 F2 | EF DE C/D/C/D/ E/F/E/F/ |"^#""^#" G4 G2 d2 | d2 c2 B2 A2 | %6
w: ||con- tar le|stel- _ le, _ chi * * * * * * *|* puo con-|tar le stel- le,|
w: ||||||
"^#""^#" G/F/E/F/ G/A/B/c/ d4 | ddcc B3 G | A8 | D2 D2 d4 | G4 z2 E2 | e4 A2 z A | d3 c B2 A2 | %13
w: e * * * * * * * *|le mi- nu- te'a- re- ne,|rac-|con- ti, rac-|con- ti,|rac- con- ti|le bel- lez- ze|
w: |||||||
 G2 ^F2 G2 E2 | D8 |1[M:2/4] G4 ::2[M:4/4] G2 c4 B2 || c4 G4 | z2 d4 ^c2 | d4 A4 | z2 e2 E^F^GA | %21
w: del mio be- ne,|ne,|jo|di- ro sol,|jo di-|ro sol,|che sua|bel- ta su- pre- ma,|
w: |||2.ma, * *|||||
 ^G4 A2 E2 | c2 BA G4 | z2 A2 d2 cB | A4 D4 | G4 E4 | ^F4 G4 | D8 :| G8 |] %29
w: e, u- na|bel- ta, e, u-|na bel- ta, ch'è|nel suo|mez- zo'es-|tre- ma.|||
w: ||||||||

